X:1
T:Anima mea liquefacta est
T:Anima mea liquefacta est
T:Giovanni Girolamo Kapsperger
T:Source : Libro primo di mottetti passeggiati a una voce---Roma---1612. Racolta del Sig.Francesco de Nobile Editor : André Vierendeels (28/10/15).
T:Notes : Original clefs : C1, F4 Editorial accidentals above the staff Note values have been halved in 3-beat measures Figures in BC are notated in original Ms
C:Giovanni Girolamo Kapsperger
%%score 1 2
L:1/8
Q:1/4=85
M:4/4
K:C
V:1 treble nm="Soprano" snm="S"
V:2 bass nm="BC" snm="BC"
V:1
 d8- | d4 A2 B2 | A8 | G8 | c6 d2 | e6 e2 | d4 c3 c | B3 B A4 | G6 D2 | EDE^F G4- | G4 ^F4 | %11
w: A-|* ni- ma|me-|a|li- que-|fa- cta|* ut di-|le- ctus me-|us lo-|_ _ _ _ cu-|* tus|
 G4 z E/F/ G/A/B/c/ | d6 AA | B2 c4 B2 | c4 e4- | e2 dc BA^G^F | ^G2 A4 G2 | A4 A2 B2 | ^c2 d2 e4 | %19
w: est, a- * * * * *|* ni- ma|me- * *|a li-|* que- * * * * *|fa- * cta|est ut di-|le- ctus me-|
 ^c6 A2 | BAB^c d4- | d4 ^c4 | d8 | A4 B2 A2 | G/^F/G/D/ E/F/G/A/ B/c/d/c/ c/c/B/c/ | %25
w: us lo-|* * * * cu-|* tus|est,|quae- si- vi|e- * * * * * * * * * * * * * * *|
 d/c/c/c/ B/A/B/A/ A/A/G/^F/ G/D/E/F/ | G/A/B/c/ d/e/^f/g/ G2 A2 | %27
w: ||
 B/A/B/A/ B/A/B/A/ B/A/A/A/ A/A/A/G/ | A4 A4 | z DEF GABc | B3 c/d/ c3 d/e/ | ^G6 A2 | BcdA Bcdc | %33
w: |* um|et _ _ _ _ _ _|_ _ _ _ _ _|non in-|ve- * * * * * * *|
 B8 | A8 | A_Bcd G4 | G4 d4 | fedc d2 A2 | _BAGF G2 D2 | E8 | D8 | z4 d4- | d2 G3 A/G/ A/^F/G/A/ | %43
w: |ni,|vo- * * * ca-|vi et|non _ _ _ re- spon-|* * * * * dit|mi-|hi.|Ad-|* iu- ro _ _ _ _ _|
 B4 c3 c | A4 FGAB | cd e/d/e/d/ e/d/e/d/ d/d/d/c/ | d6 d2 | c6 e2 | B3 B d3 d | A3 A c4 | %50
w: vos fi- li-|ae Hie- * * *||ru- sa-|lem si|in- ve- ne- ri-|tis di- le-|
 G4 E>^F G>A | G>A B>c A>B c>d | B^c d>e c/d/e/A/ B/c/d/B/ | %53
w: cti me- * * *|||
 ^c2 d2 c/4d/4c/4d/4c/4d/4c/4c/4 c/B/c | d2 d4 cc | c>d B>c A>B c>d | B>c A>B G>A F>G | %57
w: |um, a- nun- ci-|e- * * * * * * *||
 A>B G>A F>G E>F | G>A F>G EF D/E/F/E/ | D/E/F/D/ E/F/G/F/ G/E/F/G/ A/F/G/A/ | %60
w: |* * * * * tis e- * * *||
 D/E/F/G/ A/B/c/A/ B/c/d/e/ f/e/d/c/ | B/c/d e/d/c d/c/ B2 c/d/ | %62
w: ||
 ^GA/B/ E/^F/G/E/ F/G/A/B/ c/d/e/A/ | B8 | A8 | d6 AA | _B6 A2- | A2 G4 FE | F6 ED | _E6 E2 | D8 | %71
w: ||i,|qui- a A-|mo- re|_ lan- * *||* gue-|o,|
 G6 AA | B4 ^c4- | c2 ^F2 G4- | G4 ^F4 | !fermata!G8 |] %76
w: qui- a A-|mo- re|_ lan- *|* gue-|o.|
V:2
 G,,2 A,,2 B,,2 C,2 | D,2 E,2 ^F,2 G,2 | D,8 | E,8 | C,4 B,,4 | C,8 | G,,4 A,,4 | E,4 F,4 | %8
 C,4 B,,4 | C,8 | D,8 | G,,4 G,4 | ^F,8 | G,8 | C,8 | D,8 | E,8 | A,,8 | A,8 | A,6 ^F,2 | G,8 | %21
 A,8 | D,8- | D,4 G,4 | G,8 | G,8- | G,8- | G,8 | D,8- | D,8 | D,4 E,4 | E,8 | D,8 | E,8 | A,,8 | %35
 F,4 C,4- | C,4 _B,,4 | _B,4 ^F,4 | G,6 F,2 | A,8 | D,8 | D,8 | E,4 ^F,4 | G,4 E,4 | F,8 | E,8 | %46
 G,8 | C,8 | G,4 C,4 | F,4 C,4 | E,8- | E,4 F,4 | E,8- | E,8 | D,6 A,,2 | A,2 G,2 F,2 E,2 | %56
 G,2 F,2 E,2 D,2 | F,2 E,2 D,2 C,2 | _E,2 D,2 C,2 _B,,2 | _B,,6 F,2 | D,8- | D,4 E,4 | E,8- | E,8 | %64
 A,,8 | D,4 ^F,4 | G,4 C,4 | _B,,4 A,,4- | A,,4 G,,4 | G,,4 G,,4 | G,,8 | G,4 ^F,4 | G,4 E,4 | %73
 D,6 ^C,2 | D,8 | !fermata!G,,8 |] %76

